addons/godot-flexbox/assets/light/AlignContentStretchRowIcon.svg

<svg xmlns="http://www.w3.org/2000/svg" width="16" height="16" fill="none"><g fill="#474747" clip-path="url(#a)"><path d="M16 0H0v1h16V0ZM16 15H0v1h16v-1ZM4 1.5h8V7H4V1.5ZM4 9h8v5.5H4V9Z"/></g><defs><clipPath id="a"><path fill="#fff" d="M0 0h16v16H0z"/></clipPath></defs></svg>

<svg width="16" height="16" viewBox="0 0 16 16" fill="none" xmlns="http://www.w3.org/2000/svg">
<g clip-path="url(#clip0_1_7)">
<path d="M16 0H0V1H16V0Z" fill="#474747"/>
<path d="M16 15H0V16H16V15Z" fill="#474747"/>
<path d="M4 1.5H12V7H4V1.5Z" fill="#474747"/>
<path d="M4 9H12V14.5H4V9Z" fill="#474747"/>
</g>
<defs>
<clipPath id="clip0_1_7">
<rect width="16" height="16" fill="white"/>
</clipPath>
</defs>
</svg>
